www/images/github.svg

<svg width="24" height="24" viewBox="0 0 24 24" fill="none" xmlns="http://www.w3.org/2000/svg">
<path d="M12 2.24658C9.6255 2.24668 7.32849 3.0917 5.51999 4.63043C3.71149 6.16916 2.50953 8.3012 2.12916 10.6451C1.74879 12.9889 2.21485 15.3917 3.44393 17.4233C4.67301 19.455 6.58491 20.9831 8.83755 21.7341C9.33755 21.8216 9.52505 21.5216 9.52505 21.2591C9.52505 21.0216 9.51254 20.2341 9.51254 19.3966C7.00003 19.8591 6.35003 18.7841 6.15003 18.2216C5.9281 17.6745 5.5763 17.1897 5.12503 16.8091C4.77503 16.6216 4.27503 16.1591 5.11252 16.1466C5.4323 16.1813 5.73901 16.2926 6.00666 16.471C6.2743 16.6494 6.49499 16.8897 6.65003 17.1716C6.7868 17.4173 6.97071 17.6336 7.19122 17.8081C7.41173 17.9826 7.6645 18.1118 7.93506 18.1885C8.20562 18.2651 8.48864 18.2876 8.76791 18.2547C9.04717 18.2218 9.3172 18.134 9.56251 17.9966C9.6058 17.4882 9.83237 17.0129 10.2 16.6591C7.97503 16.4091 5.65003 15.5466 5.65003 11.7216C5.63597 10.7278 6.00271 9.76619 6.67503 9.03411C6.36931 8.17033 6.40508 7.2224 6.77503 6.38411C6.77503 6.38411 7.6125 6.1216 9.52503 7.40911C11.1613 6.95909 12.8887 6.95909 14.525 7.40911C16.4375 6.10911 17.275 6.38411 17.275 6.38411C17.645 7.22238 17.6808 8.17034 17.375 9.03411C18.0494 9.76494 18.4164 10.7273 18.4 11.7216C18.4 15.5591 16.0625 16.4091 13.8375 16.6591C14.0762 16.901 14.26 17.1914 14.3764 17.5106C14.4929 17.8298 14.5393 18.1704 14.5125 18.5091C14.5125 19.8466 14.5 20.9216 14.5 21.2591C14.5 21.5216 14.6875 21.8341 15.1875 21.7341C17.4362 20.977 19.3426 19.4453 20.5664 17.4126C21.7903 15.3799 22.2519 12.9784 21.8689 10.6368C21.4859 8.29523 20.2832 6.16595 18.4755 4.62909C16.6678 3.09223 14.3727 2.24782 12 2.24658Z" fill="black"/>
</svg>

<svg xmlns="http://www.w3.org/2000/svg" width="24" height="24">
  <path d="M12 2.25a10 10 0 0 0-3.16 19.48c.5.1.69-.2.69-.47L9.5 19.4c-2.51.46-3.16-.62-3.36-1.18a3.64 3.64 0 0 0-1.02-1.41c-.35-.19-.85-.65-.02-.66a2 2 0 0 1 1.54 1.02 2.14 2.14 0 0 0 2.91.83c.05-.51.27-.99.64-1.34-2.22-.25-4.55-1.11-4.55-4.94a3.9 3.9 0 0 1 1.03-2.69 3.6 3.6 0 0 1 .1-2.65s.83-.26 2.75 1.03a9.43 9.43 0 0 1 5 0c1.9-1.3 2.74-1.03 2.74-1.03.38.84.41 1.79.1 2.65.68.73 1.05 1.7 1.03 2.7 0 3.83-2.34 4.68-4.56 4.93a2.37 2.37 0 0 1 .67 1.85l-.01 2.75c0 .26.19.57.69.47A10 10 0 0 0 12 2.25Z"/>
</svg>
